X: 31128
T: Paddy Fahey's
R: jig
M: 6/8
K: Gmajor
D|GA_B =B2d|cBG ABc|dBd cAc|BGd AFD|
GA_B =B2d|cBG ABc|dga fdc|BGF G2:|
|:d|~g3 bag|fga gfd|~g3 bag|fga g2ef|
gdB GBd|cBG ABc|dga fdc|BGF G2:|
GA_B =BcA|_BAG AFD|~d3 ~c3|B/c/dB AFD|

